HTML/img/Rhythms/rhythm4.svg

<svg width="612" height="792" viewBox="0 0 140 50" xmlns="http://www.w3.org/2000/svg"><path class="StaffLines" fill="none" stroke="#000" stroke-width=".4" stroke-linejoin="bevel" d="M4.945 21.884h130.11"/><path class="BarLine" d="M125.821 20.185a1.092 1.092 0 01-.332-.801c0-.312.111-.579.332-.8.222-.222.489-.332.801-.332.313 0 .58.11.801.332.221.221.332.488.332.8 0 .313-.111.58-.332.801a1.088 1.088 0 01-.801.332c-.312 0-.579-.11-.801-.332M125.821 25.185a1.091 1.091 0 01-.332-.8c0-.313.111-.58.332-.801.222-.221.489-.332.801-.332.313 0 .58.111.801.332.221.221.332.488.332.801 0 .312-.111.579-.332.8a1.089 1.089 0 01-.801.333c-.312 0-.579-.111-.801-.333"/><path class="BarLine" fill="none" stroke="#000" stroke-width=".8" stroke-linejoin="bevel" d="M130.155 11.884v20.001"/><path class="BarLine" fill="none" stroke="#000" stroke-width="2.5" stroke-linejoin="bevel" d="M133.806 11.884v20.001"/><path class="Stem" fill="none" stroke="#000" stroke-width=".65" stroke-linecap="round" stroke-linejoin="bevel" d="M94.452 22.668V35.01M71.954 22.824V35.01M57.781 22.824v14.061M43.607 22.824v14.061"/><path class="Note" d="M100.435 20.576a.744.744 0 00-.253-.567.808.808 0 00-.586-.254c-.391 0-1.179.391-2.364 1.172-1.224.795-1.972 1.361-2.246 1.7a.908.908 0 00-.215.566c0 .221.085.41.254.566.157.17.352.254.586.254.378 0 1.172-.39 2.383-1.172 1.198-.781 1.94-1.347 2.227-1.699a.855.855 0 00.214-.566M99.4 19.13c1.12 0 1.68.482 1.68 1.446 0 .469-.137 1.015-.41 1.64-.274.612-.638 1.081-1.094 1.407-1.002.677-2.259 1.015-3.769 1.015-1.12 0-1.68-.481-1.68-1.445 0-.43.137-.97.41-1.621.26-.625.625-1.1 1.094-1.426 1.002-.677 2.259-1.016 3.769-1.016M76.024 19.13c.625 0 1.152.163 1.582.489.404.351.606.794.606 1.328 0 .898-.463 1.738-1.387 2.519-.938.782-1.94 1.172-3.008 1.172-.625 0-1.153-.162-1.582-.488a1.686 1.686 0 01-.606-1.328c0-.899.469-1.738 1.407-2.52.911-.781 1.907-1.172 2.988-1.172M61.85 19.13c.625 0 1.153.163 1.582.489.404.351.606.794.606 1.328 0 .898-.463 1.738-1.387 2.519-.938.782-1.94 1.172-3.008 1.172-.625 0-1.152-.162-1.582-.488a1.685 1.685 0 01-.605-1.328c0-.899.468-1.738 1.406-2.52.911-.781 1.907-1.172 2.988-1.172M47.677 19.13c.625 0 1.152.163 1.582.489.403.351.605.794.605 1.328 0 .898-.462 1.738-1.387 2.519-.937.782-1.94 1.172-3.008 1.172-.625 0-1.152-.162-1.582-.488a1.688 1.688 0 01-.605-1.328c0-.899.469-1.738 1.406-2.52.912-.781 1.908-1.172 2.989-1.172"/><path class="Clef" d="M17.95 26.884h-1.836c-.143 0-.215-.065-.215-.195V17.08c0-.131.072-.196.215-.196h1.836c.13 0 .195.065.195.196v9.609c0 .13-.065.195-.195.195m-4.414 0h-1.855c-.131 0-.196-.065-.196-.195V17.08c0-.131.065-.196.196-.196h1.855c.143 0 .215.065.215.196v9.609c0 .13-.072.195-.215.195"/><path class="TimeSig" d="M31.023 12.138c.391 0 .723-.046.996-.137.274-.091.449-.136.528-.136.091 0 .162.026.214.078a.29.29 0 01.079.136.297.297 0 01-.04.118l-5.683 6.601h3.34v-2.617a.68.68 0 01.136-.43c.157-.13.287-.208.391-.234.169-.078.378-.261.625-.547.208-.234.456-.645.742-1.23.039-.079.098-.118.176-.118.156 0 .247.091.273.274v4.902h1.426c.183 0 .287.098.313.293 0 .195-.104.293-.313.293H32.8v.156c0 .521.131.964.391 1.328.3.365.651.547 1.055.547.156 0 .234.078.234.235 0 .156-.078.234-.234.234-.274 0-.716-.039-1.328-.117-.56-.091-.996-.137-1.309-.137-.325 0-.762.046-1.309.137-.585.078-1.022.117-1.308.117-.156 0-.235-.078-.235-.234 0-.157.079-.235.235-.235.404 0 .755-.182 1.055-.547.273-.364.41-.807.41-1.328v-.156h-3.34c-.221 0-.378-.052-.469-.156a.371.371 0 01-.156-.313c0-.039.098-.175.293-.41.221-.26.456-.579.703-.957.286-.443.56-.898.82-1.367a7.772 7.772 0 00.684-1.836 8 8 0 00.293-2.148c0-.209.091-.313.273-.313.039 0 .124.02.254.059.039.013.121.032.244.058.124.026.225.052.303.078.234.039.456.059.664.059"/><path class="TimeSig" d="M31.023 22.139c.391 0 .723-.046.996-.137.274-.091.449-.137.528-.137.091 0 .162.026.214.078a.293.293 0 01.079.137.289.289 0 01-.04.117l-5.683 6.602h3.34v-2.617c0-.17.045-.313.136-.43.157-.13.287-.208.391-.234.169-.079.378-.261.625-.547.208-.235.456-.645.742-1.231.039-.078.098-.117.176-.117.156 0 .247.091.273.273v4.903h1.426c.183 0 .287.097.313.293 0 .195-.104.293-.313.293H32.8v.156c0 .521.131.963.391 1.328.3.365.651.547 1.055.547.156 0 .234.078.234.234 0 .157-.078.235-.234.235-.274 0-.716-.039-1.328-.117-.56-.092-.996-.137-1.309-.137-.325 0-.762.045-1.309.137-.585.078-1.022.117-1.308.117-.156 0-.235-.078-.235-.235 0-.156.079-.234.235-.234.404 0 .755-.182 1.055-.547.273-.365.41-.807.41-1.328v-.156h-3.34c-.221 0-.378-.052-.469-.157a.37.37 0 01-.156-.312c0-.039.098-.176.293-.41.221-.261.456-.58.703-.957a24.1 24.1 0 00.82-1.367 7.772 7.772 0 00.684-1.836c.195-.703.293-1.42.293-2.149 0-.208.091-.312.273-.312.039 0 .124.019.254.058.039.013.121.033.244.059.124.026.225.052.303.078.234.039.456.059.664.059"/><path class="Beam" fill-rule="evenodd" d="M43.282 35.635h14.824v2.5H43.282v-2.5"/></svg>

<?xml version="1.0" encoding="utf-8"?>
<svg width="612px" height="792px" viewBox="0 0 140 50" xmlns="http://www.w3.org/2000/svg">
  <title>Rythm rythms</title>
  <desc>Generated by MuseScore 2.0.3</desc>
  <polyline class="StaffLines" fill="none" stroke="#000000" stroke-width="0.40" stroke-linejoin="bevel" points="4.945 21.884 135.055 21.884"/>
  <path class="BarLine" d="M 125.821 20.185 C 125.6 19.964 125.489 19.697 125.489 19.384 C 125.489 19.072 125.6 18.805 125.821 18.584 C 126.043 18.362 126.31 18.252 126.622 18.252 C 126.935 18.252 127.202 18.362 127.423 18.584 C 127.644 18.805 127.755 19.072 127.755 19.384 C 127.755 19.697 127.644 19.964 127.423 20.185 C 127.202 20.407 126.935 20.517 126.622 20.517 C 126.31 20.517 126.043 20.407 125.821 20.185"/>
  <path class="BarLine" d="M 125.821 25.185 C 125.6 24.964 125.489 24.697 125.489 24.385 C 125.489 24.072 125.6 23.805 125.821 23.584 C 126.043 23.363 126.31 23.252 126.622 23.252 C 126.935 23.252 127.202 23.363 127.423 23.584 C 127.644 23.805 127.755 24.072 127.755 24.385 C 127.755 24.697 127.644 24.964 127.423 25.185 C 127.202 25.407 126.935 25.518 126.622 25.518 C 126.31 25.518 126.043 25.407 125.821 25.185"/>
  <polyline class="BarLine" fill="none" stroke="#000000" stroke-width="0.80" stroke-linejoin="bevel" points="130.155 11.884 130.155 31.885"/>
  <polyline class="BarLine" fill="none" stroke="#000000" stroke-width="2.50" stroke-linejoin="bevel" points="133.806 11.884 133.806 31.885"/>
  <polyline class="Stem" fill="none" stroke="#000000" stroke-width="0.65" stroke-linecap="round" stroke-linejoin="bevel" points="94.452 22.668 94.452 35.01"/>
  <polyline class="Stem" fill="none" stroke="#000000" stroke-width="0.65" stroke-linecap="round" stroke-linejoin="bevel" points="71.954 22.824 71.954 35.01"/>
  <polyline class="Stem" fill="none" stroke="#000000" stroke-width="0.65" stroke-linecap="round" stroke-linejoin="bevel" points="57.781 22.824 57.781 36.885"/>
  <polyline class="Stem" fill="none" stroke="#000000" stroke-width="0.65" stroke-linecap="round" stroke-linejoin="bevel" points="43.607 22.824 43.607 36.885"/>
  <path class="Note" d="M 100.435 20.576 C 100.435 20.354 100.351 20.166 100.182 20.009 C 100.012 19.84 99.817 19.755 99.596 19.755 C 99.205 19.755 98.417 20.146 97.232 20.927 C 96.008 21.722 95.26 22.288 94.986 22.627 C 94.843 22.809 94.771 22.998 94.771 23.193 C 94.771 23.414 94.856 23.603 95.025 23.759 C 95.182 23.929 95.377 24.013 95.611 24.013 C 95.989 24.013 96.783 23.623 97.994 22.841 C 99.192 22.06 99.934 21.494 100.221 21.142 C 100.364 20.973 100.435 20.784 100.435 20.576 M 99.4 19.13 C 100.52 19.13 101.08 19.612 101.08 20.576 C 101.08 21.045 100.943 21.591 100.67 22.216 C 100.396 22.828 100.032 23.297 99.576 23.623 C 98.574 24.3 97.317 24.638 95.807 24.638 C 94.687 24.638 94.127 24.157 94.127 23.193 C 94.127 22.763 94.264 22.223 94.537 21.572 C 94.797 20.947 95.162 20.472 95.631 20.146 C 96.633 19.469 97.89 19.13 99.4 19.13"/>
  <path class="Note" d="M 76.024 19.13 C 76.649 19.13 77.176 19.293 77.606 19.619 C 78.01 19.97 78.212 20.413 78.212 20.947 C 78.212 21.845 77.749 22.685 76.825 23.466 C 75.887 24.248 74.885 24.638 73.817 24.638 C 73.192 24.638 72.664 24.476 72.235 24.15 C 71.831 23.798 71.629 23.356 71.629 22.822 C 71.629 21.923 72.098 21.084 73.036 20.302 C 73.947 19.521 74.943 19.13 76.024 19.13"/>
  <path class="Note" d="M 61.85 19.13 C 62.475 19.13 63.003 19.293 63.432 19.619 C 63.836 19.97 64.038 20.413 64.038 20.947 C 64.038 21.845 63.575 22.685 62.651 23.466 C 61.713 24.248 60.711 24.638 59.643 24.638 C 59.018 24.638 58.491 24.476 58.061 24.15 C 57.657 23.798 57.456 23.356 57.456 22.822 C 57.456 21.923 57.924 21.084 58.862 20.302 C 59.773 19.521 60.769 19.13 61.85 19.13"/>
  <path class="Note" d="M 47.677 19.13 C 48.302 19.13 48.829 19.293 49.259 19.619 C 49.662 19.97 49.864 20.413 49.864 20.947 C 49.864 21.845 49.402 22.685 48.477 23.466 C 47.54 24.248 46.537 24.638 45.469 24.638 C 44.844 24.638 44.317 24.476 43.887 24.15 C 43.484 23.798 43.282 23.356 43.282 22.822 C 43.282 21.923 43.751 21.084 44.688 20.302 C 45.6 19.521 46.596 19.13 47.677 19.13"/>
  <path class="Clef" d="M 17.95 26.884 L 16.114 26.884 C 15.971 26.884 15.899 26.819 15.899 26.689 L 15.899 17.08 C 15.899 16.949 15.971 16.884 16.114 16.884 L 17.95 16.884 C 18.08 16.884 18.145 16.949 18.145 17.08 L 18.145 26.689 C 18.145 26.819 18.08 26.884 17.95 26.884 M 13.536 26.884 L 11.681 26.884 C 11.55 26.884 11.485 26.819 11.485 26.689 L 11.485 17.08 C 11.485 16.949 11.55 16.884 11.681 16.884 L 13.536 16.884 C 13.679 16.884 13.751 16.949 13.751 17.08 L 13.751 26.689 C 13.751 26.819 13.679 26.884 13.536 26.884"/>
  <path class="TimeSig" d="M 31.023 12.138 C 31.414 12.138 31.746 12.092 32.019 12.001 C 32.293 11.91 32.468 11.865 32.547 11.865 C 32.638 11.865 32.709 11.891 32.761 11.943 C 32.8 11.982 32.827 12.027 32.84 12.079 C 32.84 12.105 32.827 12.144 32.8 12.197 L 27.117 18.798 L 30.457 18.798 L 30.457 16.181 C 30.457 16.012 30.502 15.868 30.593 15.751 C 30.75 15.621 30.88 15.543 30.984 15.517 C 31.153 15.439 31.362 15.256 31.609 14.97 C 31.817 14.736 32.065 14.325 32.351 13.74 C 32.39 13.661 32.449 13.622 32.527 13.622 C 32.683 13.622 32.774 13.713 32.8 13.896 L 32.8 18.798 L 34.226 18.798 C 34.409 18.798 34.513 18.896 34.539 19.091 C 34.539 19.286 34.435 19.384 34.226 19.384 L 32.8 19.384 L 32.8 19.54 C 32.8 20.061 32.931 20.504 33.191 20.868 C 33.491 21.233 33.842 21.415 34.246 21.415 C 34.402 21.415 34.48 21.493 34.48 21.65 C 34.48 21.806 34.402 21.884 34.246 21.884 C 33.972 21.884 33.53 21.845 32.918 21.767 C 32.358 21.676 31.922 21.63 31.609 21.63 C 31.284 21.63 30.847 21.676 30.3 21.767 C 29.715 21.845 29.278 21.884 28.992 21.884 C 28.836 21.884 28.757 21.806 28.757 21.65 C 28.757 21.493 28.836 21.415 28.992 21.415 C 29.396 21.415 29.747 21.233 30.047 20.868 C 30.32 20.504 30.457 20.061 30.457 19.54 L 30.457 19.384 L 27.117 19.384 C 26.896 19.384 26.739 19.332 26.648 19.228 C 26.544 19.15 26.492 19.046 26.492 18.915 C 26.492 18.876 26.59 18.74 26.785 18.505 C 27.006 18.245 27.241 17.926 27.488 17.548 C 27.774 17.105 28.048 16.65 28.308 16.181 C 28.595 15.647 28.823 15.035 28.992 14.345 C 29.187 13.642 29.285 12.926 29.285 12.197 C 29.285 11.988 29.376 11.884 29.558 11.884 C 29.597 11.884 29.682 11.904 29.812 11.943 C 29.851 11.956 29.933 11.975 30.056 12.001 C 30.18 12.027 30.281 12.053 30.359 12.079 C 30.593 12.118 30.815 12.138 31.023 12.138"/>
  <path class="TimeSig" d="M 31.023 22.139 C 31.414 22.139 31.746 22.093 32.019 22.002 C 32.293 21.911 32.468 21.865 32.547 21.865 C 32.638 21.865 32.709 21.891 32.761 21.943 C 32.8 21.982 32.827 22.028 32.84 22.08 C 32.84 22.106 32.827 22.145 32.8 22.197 L 27.117 28.799 L 30.457 28.799 L 30.457 26.182 C 30.457 26.012 30.502 25.869 30.593 25.752 C 30.75 25.622 30.88 25.544 30.984 25.518 C 31.153 25.439 31.362 25.257 31.609 24.971 C 31.817 24.736 32.065 24.326 32.351 23.74 C 32.39 23.662 32.449 23.623 32.527 23.623 C 32.683 23.623 32.774 23.714 32.8 23.896 L 32.8 28.799 L 34.226 28.799 C 34.409 28.799 34.513 28.896 34.539 29.092 C 34.539 29.287 34.435 29.385 34.226 29.385 L 32.8 29.385 L 32.8 29.541 C 32.8 30.062 32.931 30.504 33.191 30.869 C 33.491 31.234 33.842 31.416 34.246 31.416 C 34.402 31.416 34.48 31.494 34.48 31.65 C 34.48 31.807 34.402 31.885 34.246 31.885 C 33.972 31.885 33.53 31.846 32.918 31.768 C 32.358 31.676 31.922 31.631 31.609 31.631 C 31.284 31.631 30.847 31.676 30.3 31.768 C 29.715 31.846 29.278 31.885 28.992 31.885 C 28.836 31.885 28.757 31.807 28.757 31.65 C 28.757 31.494 28.836 31.416 28.992 31.416 C 29.396 31.416 29.747 31.234 30.047 30.869 C 30.32 30.504 30.457 30.062 30.457 29.541 L 30.457 29.385 L 27.117 29.385 C 26.896 29.385 26.739 29.333 26.648 29.228 C 26.544 29.15 26.492 29.046 26.492 28.916 C 26.492 28.877 26.59 28.74 26.785 28.506 C 27.006 28.245 27.241 27.926 27.488 27.549 C 27.774 27.106 28.048 26.65 28.308 26.182 C 28.595 25.648 28.823 25.036 28.992 24.346 C 29.187 23.643 29.285 22.926 29.285 22.197 C 29.285 21.989 29.376 21.885 29.558 21.885 C 29.597 21.885 29.682 21.904 29.812 21.943 C 29.851 21.956 29.933 21.976 30.056 22.002 C 30.18 22.028 30.281 22.054 30.359 22.08 C 30.593 22.119 30.815 22.139 31.023 22.139"/>
  <path class="Beam" fill-rule="evenodd" d="M 43.282 35.635 L 58.106 35.635 L 58.106 38.135 L 43.282 38.135 L 43.282 35.635"/>
</svg>
